X: 061
M: 6/8
L: 1/8
K: G	% Actually Dmix in the 1st strain
f |\
fab agf | efg fed | caa Bgg | ABG FED |\
gab agf | efg fga | fed ABc | d3 D2 :|
|:\

